X: 252
M: 2/4
L: 1/8
K: G
|:\
|:\
"2.F."GABc | d3 e/f/ | gdcB | c2 {B}A2 |\
.g(dcB) | .g(dcB) | .g(dcB) | c2 {B}A2 |\
.g(dcB) | .g(dcB) | cAGF | G2G2 |
.g(dcB) | .g(dcB) | .g(dcB) | c2 {B}A2 |\
.g(dcB) | .g(dcB) | cAGF | G2 G2 :|

